!!!SOCIAL_FUNCTION: war songs
!!!PDT:	1943
!!!LING_GROUP: Muskogean
!!!LANG: Non-Tone
Specific Region: Oklahoma, California, Mississippi, Louisiana, Texas, Alabama
!!!REG: Southeast
!!!COM: Anon.
!!!OTL: War Song
!!!ODT: <1933//
!!!MPN: Lapintabeseihoke [Kills it Himself, Sidney Wesley]
!!!MLC: Philadelphia, Mississippi, United States of America
!! Song was recorded in January 1933.
!!!AGN: monody
!!!AMT: irregular
!!!RWG: Transcribed pitches, durations, and meters are only approximate.
**kern
*ICvox
*Imale
*clefF4
*k[b-e-a-d-g-]
*M2/4
*MM64
=1-
8d-
8B-
16B-
8B-
16d-
=2
4d-
8d-
8B-
*M3/4
=3
8d-
8B-
16A-
8A-
16A-
8A
16B-
16A-
=4
16B-
8A-
16A-
8A-
16A-
16r
8A-
16A-
16r
*M5/8
=5
8A-
[8A-
8A-]
16A-
16r
8r
*M2/4
=6
8e-
8d-
16B-
8B-
16d-
=7
4d-
8d-
8B-
*M3/4
=8
8d-
8B-
16A-
8A-
16A-
8A-
16B-
16A-
=9
16B-
8A-
16a-
8A-
16A-
16r
8A-
16A-
16r
*M5/8
=10
8A-
[8A-
8A-]
16A-
16r
8r
*M2/4
=11
8d-
8B-
16d-
8B-
16e-
=12
4d-
8d-
8B-
*M3/4
=13
8d-
8B-
16A-
8A-
16A-
8A-
16B-
16A-
=14
16B-
8A-
16A-
8A-
16A-
16r
8A-
16A-
16r
*M2/4
=15
8A-
[8A-
8A-]
16A-
16r
=16
8.r
16B-
4B-
=17
4d-
8d-
16.B-
32B-
=18
4A-
8.A-
16B-
*M3/4
=19
16.B-
32B-
8B-
16.A-
32A-
[8A-
4A-]
*M2/4
=20
8A-
8r
8A-
16A-
32r
32A-
=21
8A-
16r
16B-
4B-
=22
4d-
8d-
16.B-
32B-
=23
4A-
8.A-
16B-
*M3/4
=24
16.B-
32B-
8B-
16.A-
32A-
[8A-
4A-]
*M2/4
=25
8A-
8r
8A-
16A-
32r
32A-
=26
2A-
==
*-
!!!CNT: Choctaw
!!!TXO: Choctaw
!!!OCY: United States
!!!OCL: Frances Densmore
!!!YOR: Frances Densmore, "Choctaw Music"
!!!YOR: Bulletin 136, page 124, No. 1
!!!PPR: Smithsonian Institution, Bureau of American Ethnology
!!!PPR: Government Printing Office
!!!PDT: 1943
!!!PPP: Washington, DC, United States of America
!!!YEC: Electronic Copyright 2000 David Huron
!!!YER: August 2000
!!!YEN: United States of America
!!!ENC: David Huron
!!!RDT: August 27, 2000
!!!EEV: Release 1.0
!!!AIN: vox
